static/cards/ColorDeck/default/card_back.svg

<svg xmlns="http://www.w3.org/2000/svg" width="280" height="395" fill="none" viewBox="0 0 280 395"><g clip-path="url(#a)"><rect width="279" height="394" x=".5" y=".5" fill="url(#b)" rx="19.5"/><rect width="279" height="394" x=".5" y=".5" stroke="#d2d2d2" rx="19.5"/><g clip-path="url(#c)" data-figma-skip-parse="true"><foreignObject width="2075.47" height="2075.47" x="-1037.74" y="-1037.74" transform="matrix(0 .036 -.0265 0 139.5 198)"><div xmlns="http://www.w3.org/1999/xhtml" style="background:conic-gradient(from 90deg,#f5bb6e 0deg,#ec606c 88.125deg,#ec606c 131.25deg,#4364ef 200.625deg,#4364ef 249.375deg,#41d589 300deg,#41d589 339.375deg,#f5bb6e 360deg);height:100%;width:100%;opacity:1"/></foreignObject></g><path d="M152 162h-25c-7.732 0-14 6.268-14 14v44c0 7.732 6.268 14 14 14h25c7.732 0 14-6.268 14-14v-44c0-7.732-6.268-14-14-14m-35 14c0-5.523 4.477-10 10-10h25c5.523 0 10 4.477 10 10v44c0 5.523-4.477 10-10 10h-25c-5.523 0-10-4.477-10-10zm22.523 9.727h3.42V209h-3.523v-19.75h-.136l-5.568 3.636v-3.363z" clip-rule="evenodd" data-figma-gradient-fill="{&quot;type&quot;:&quot;GRADIENT_ANGULAR&quot;,&quot;stops&quot;:[{&quot;color&quot;:{&quot;r&quot;:0.96078431606292725,&quot;g&quot;:0.73333334922790527,&quot;b&quot;:0.43137255311012268,&quot;a&quot;:1.0},&quot;position&quot;:0.0},{&quot;color&quot;:{&quot;r&quot;:0.92549020051956177,&quot;g&quot;:0.37647059559822083,&quot;b&quot;:0.42352941632270813,&quot;a&quot;:1.0},&quot;position&quot;:0.24479167163372040},{&quot;color&quot;:{&quot;r&quot;:0.92549020051956177,&quot;g&quot;:0.37647059559822083,&quot;b&quot;:0.42352941632270813,&quot;a&quot;:1.0},&quot;position&quot;:0.36458334326744080},{&quot;color&quot;:{&quot;r&quot;:0.26274511218070984,&quot;g&quot;:0.39215686917304993,&quot;b&quot;:0.93725490570068359,&quot;a&quot;:1.0},&quot;position&quot;:0.55729168653488159},{&quot;color&quot;:{&quot;r&quot;:0.26274511218070984,&quot;g&quot;:0.39215686917304993,&quot;b&quot;:0.93725490570068359,&quot;a&quot;:1.0},&quot;position&quot;:0.69270831346511841},{&quot;color&quot;:{&quot;r&quot;:0.25490197539329529,&quot;g&quot;:0.83529412746429443,&quot;b&quot;:0.53725492954254150,&quot;a&quot;:1.0},&quot;position&quot;:0.83333331346511841},{&quot;color&quot;:{&quot;r&quot;:0.25490197539329529,&quot;g&quot;:0.83529412746429443,&quot;b&quot;:0.53725492954254150,&quot;a&quot;:1.0},&quot;position&quot;:0.94270831346511841}],&quot;stopsVar&quot;:[],&quot;transform&quot;:{&quot;m00&quot;:3.2453141990553642e-15,&quot;m01&quot;:-53.0,&quot;m02&quot;:166.0,&quot;m10&quot;:72.0,&quot;m11&quot;:4.4087285634274859e-15,&quot;m12&quot;:162.0},&quot;opacity&quot;:1.0,&quot;blendMode&quot;:&quot;NORMAL&quot;,&quot;visible&quot;:true}"/></g><defs><clipPath id="c"><path fill-rule="evenodd" d="M152 162h-25c-7.732 0-14 6.268-14 14v44c0 7.732 6.268 14 14 14h25c7.732 0 14-6.268 14-14v-44c0-7.732-6.268-14-14-14m-35 14c0-5.523 4.477-10 10-10h25c5.523 0 10 4.477 10 10v44c0 5.523-4.477 10-10 10h-25c-5.523 0-10-4.477-10-10zm22.523 9.727h3.42V209h-3.523v-19.75h-.136l-5.568 3.636v-3.363z" clip-rule="evenodd"/></clipPath><clipPath id="a"><rect width="280" height="395" fill="#fff" rx="20"/></clipPath><linearGradient id="b" x1="14" x2="275.921" y1="0" y2="394.389" gradientUnits="userSpaceOnUse"><stop stop-color="#53565b"/><stop offset="1" stop-color="#262d3d"/></linearGradient></defs></svg>

<svg width="280" height="395" viewBox="0 0 280 395" fill="none" xmlns="http://www.w3.org/2000/svg">
<g clip-path="url(#clip0_6_1412)">
<rect x="0.5" y="0.5" width="279" height="394" rx="19.5" fill="url(#paint0_linear_6_1412)"/>
<rect x="0.5" y="0.5" width="279" height="394" rx="19.5" stroke="#D2D2D2"/>
<g clip-path="url(#paint1_angular_6_1412_clip_path)" data-figma-skip-parse="true"><g transform="matrix(0 0.036 -0.0265 0 139.5 198)"><foreignObject x="-1037.74" y="-1037.74" width="2075.47" height="2075.47"><div xmlns="http://www.w3.org/1999/xhtml" style="background:conic-gradient(from 90deg,rgba(245, 187, 110, 1) 0deg,rgba(236, 96, 108, 1) 88.125deg,rgba(236, 96, 108, 1) 131.25deg,rgba(67, 100, 239, 1) 200.625deg,rgba(67, 100, 239, 1) 249.375deg,rgba(65, 213, 137, 1) 300deg,rgba(65, 213, 137, 1) 339.375deg,rgba(245, 187, 110, 1) 360deg);height:100%;width:100%;opacity:1"></div></foreignObject></g></g><path fill-rule="evenodd" clip-rule="evenodd" d="M152 162H127C119.268 162 113 168.268 113 176V220C113 227.732 119.268 234 127 234H152C159.732 234 166 227.732 166 220V176C166 168.268 159.732 162 152 162ZM117 176C117 170.477 121.477 166 127 166H152C157.523 166 162 170.477 162 176V220C162 225.523 157.523 230 152 230H127C121.477 230 117 225.523 117 220V176ZM139.523 185.727H142.943V209H139.42V189.25H139.284L133.716 192.886V189.523L139.523 185.727Z" data-figma-gradient-fill="{&#34;type&#34;:&#34;GRADIENT_ANGULAR&#34;,&#34;stops&#34;:[{&#34;color&#34;:{&#34;r&#34;:0.96078431606292725,&#34;g&#34;:0.73333334922790527,&#34;b&#34;:0.43137255311012268,&#34;a&#34;:1.0},&#34;position&#34;:0.0},{&#34;color&#34;:{&#34;r&#34;:0.92549020051956177,&#34;g&#34;:0.37647059559822083,&#34;b&#34;:0.42352941632270813,&#34;a&#34;:1.0},&#34;position&#34;:0.24479167163372040},{&#34;color&#34;:{&#34;r&#34;:0.92549020051956177,&#34;g&#34;:0.37647059559822083,&#34;b&#34;:0.42352941632270813,&#34;a&#34;:1.0},&#34;position&#34;:0.36458334326744080},{&#34;color&#34;:{&#34;r&#34;:0.26274511218070984,&#34;g&#34;:0.39215686917304993,&#34;b&#34;:0.93725490570068359,&#34;a&#34;:1.0},&#34;position&#34;:0.55729168653488159},{&#34;color&#34;:{&#34;r&#34;:0.26274511218070984,&#34;g&#34;:0.39215686917304993,&#34;b&#34;:0.93725490570068359,&#34;a&#34;:1.0},&#34;position&#34;:0.69270831346511841},{&#34;color&#34;:{&#34;r&#34;:0.25490197539329529,&#34;g&#34;:0.83529412746429443,&#34;b&#34;:0.53725492954254150,&#34;a&#34;:1.0},&#34;position&#34;:0.83333331346511841},{&#34;color&#34;:{&#34;r&#34;:0.25490197539329529,&#34;g&#34;:0.83529412746429443,&#34;b&#34;:0.53725492954254150,&#34;a&#34;:1.0},&#34;position&#34;:0.94270831346511841}],&#34;stopsVar&#34;:[],&#34;transform&#34;:{&#34;m00&#34;:3.2453141990553642e-15,&#34;m01&#34;:-53.0,&#34;m02&#34;:166.0,&#34;m10&#34;:72.0,&#34;m11&#34;:4.4087285634274859e-15,&#34;m12&#34;:162.0},&#34;opacity&#34;:1.0,&#34;blendMode&#34;:&#34;NORMAL&#34;,&#34;visible&#34;:true}"/>
</g>
<defs>
<clipPath id="paint1_angular_6_1412_clip_path"><path fill-rule="evenodd" clip-rule="evenodd" d="M152 162H127C119.268 162 113 168.268 113 176V220C113 227.732 119.268 234 127 234H152C159.732 234 166 227.732 166 220V176C166 168.268 159.732 162 152 162ZM117 176C117 170.477 121.477 166 127 166H152C157.523 166 162 170.477 162 176V220C162 225.523 157.523 230 152 230H127C121.477 230 117 225.523 117 220V176ZM139.523 185.727H142.943V209H139.42V189.25H139.284L133.716 192.886V189.523L139.523 185.727Z"/></clipPath><linearGradient id="paint0_linear_6_1412" x1="14" y1="8.14068e-07" x2="275.921" y2="394.389" gradientUnits="userSpaceOnUse">
<stop stop-color="#53565B"/>
<stop offset="1" stop-color="#262D3D"/>
</linearGradient>
<clipPath id="clip0_6_1412">
<rect width="280" height="395" rx="20" fill="white"/>
</clipPath>
</defs>
</svg>
